X: 20092
T: Jimmy O'Reilly's
R: reel
M: 4/4
K: Adorian
A3 G E2DE|G2BG dGBG|ABAG E2D2|1 gedB BAAG:|2 gedB BAA2||
ageg a2ba|gede geda|ageg a2ga|bgga bg~g2|
ageg ageg|gedB GABd|ea~a2 g3 a|gedB BAAG||

